X: 42
T:Rigadoon. TBe.042
M:C|
L:1/4
Q:100
S:Thomas Bennet MS,1718, VWML
R:rigadoon
O:England
N:E naturals are shown as E# - see notes
N:1 - shown as a double bar
N:2 - written on the stave as D but 'e' written above stave
N:3 - shown as dotted minim g, double bar, semibreve g, double bar.
H:1718
Z:C.  Graebe
K:G minor
|:G2d2 | B>AGd | gd g/a/ b | f f f (d/=e/) |!
 fff (c/d/) | eee (B/c/) | d(d/e/) c>d |1 d4 :|2 d3 ||: !
fdg (g/f/) | =e>d cc | ff (c/d/) "2"e | d>cBf |!
 dg=ea | ^f>gad | g (g/a/) a>g |1g3 :|2 g4 ||
